src/pos-icons/umbrella-closed-outline.svg

<svg height="24" viewBox="0 0 24 24" width="24" xmlns="http://www.w3.org/2000/svg"><path d="m12 2c.4 0 .8.2.9.6l4.6 12.4h-4.5v4c0 1.7-1.3 3-3 3s-3-1.3-3-3v-1h2v1c0 .6.4 1 1 1s1-.4 1-1v-4h-4.5l4.6-12.4c.1-.4.5-.6.9-.6m0 3.9-2.6 7.1h5.3z"/></svg>

<?xml version="1.0" encoding="UTF-8"?><!DOCTYPE svg PUBLIC "-//W3C//DTD SVG 1.1//EN" "http://www.w3.org/Graphics/SVG/1.1/DTD/svg11.dtd"><svg xmlns="http://www.w3.org/2000/svg" xmlns:xlink="http://www.w3.org/1999/xlink" version="1.1" id="mdi-umbrella-closed-outline" width="24" height="24" viewBox="0 0 24 24"><path d="M12 2C12.4 2 12.8 2.2 12.9 2.6L17.5 15H13V19C13 20.7 11.7 22 10 22S7 20.7 7 19V18H9V19C9 19.6 9.4 20 10 20C10.6 20 11 19.6 11 19V15H6.5L11.1 2.6C11.2 2.2 11.6 2 12 2M12 5.9L9.4 13H14.7L12 5.9Z" /></svg>
